packages/icons/src/restore-cache-gcs-ci-step-inverse.svg

<svg fill="none" viewBox="0 0 40 40" xmlns="http://www.w3.org/2000/svg"><g clip-rule="evenodd" fill-rule="evenodd"><path d="m36.7378 27.2088 3.0821 5.3602c.118.2073.1801.4418.1801.6803 0 .2386-.0621.473-.1801.6803l-3.0821 5.3602c-.1148.2083-.2818.3833-.4845.5078-.2028.1245-.4344.1942-.6721.2024h-6.1653c-.2378-.0093-.4691-.0799-.6716-.205-.2024-.125-.3691-.3003-.4839-.5087l-3.082-5.3907c-.1169-.2041-.1784-.4351-.1784-.6703s.0615-.4662.1784-.6703l3.0832-5.3462c.1158-.2056.2834-.3773.486-.4982.2027-.1209.4335-.1867.6695-.1908h6.1652c.236.004.4668.0697.6695.1906.2028.1209.3703.2927.486.4984zm-1.8131 4.4404h-4.8563c-.0378-.001-.0745.013-.1022.0389-.0276.0258-.0439.0615-.0455.0994v1.0078c0 .0376.015.0737.0416.1003.0266.0265.0626.0415.1002.0415h4.8622c.0375-.0003.0734-.0154.0999-.0419s.0416-.0624.0419-.0999v-1.0043c0-.0376-.015-.0737-.0416-.1003-.0265-.0266-.0626-.0415-.1002-.0415zm-.7512.9375c-.0575 0-.1137-.0171-.1615-.049s-.085-.0773-.107-.1304-.0278-.1116-.0165-.1679c.0112-.0564.0389-.1082.0795-.1488.0406-.0407.0924-.0684.1488-.0796s.1148-.0054.1679.0166.0985.0592.1304.107c.032.0478.049.104.049.1615 0 .077-.0306.151-.0851.2055s-.1284.0851-.2055.0851zm.7512.9984h-4.8563c-.0378-.0009-.0745.013-.1022.0389-.0276.0259-.0439.0616-.0455.0994v1.0137c.0018.0366.0175.0711.0438.0966s.0614.0399.098.0405h4.8622c.0375-.0003.0734-.0153.0999-.0419.0265-.0265.0416-.0624.0419-.0999v-1.0102c0-.0376-.015-.0736-.0416-.1002-.0265-.0266-.0626-.0416-.1002-.0416zm-.7512.9328c-.0575 0-.1137-.017-.1615-.0489-.0478-.032-.085-.0774-.107-.1305s-.0278-.1115-.0165-.1679c.0112-.0564.0389-.1081.0795-.1488.0406-.0406.0924-.0683.1488-.0795s.1148-.0055.1679.0165.0985.0593.1304.1071c.032.0478.049.1039.049.1614 0 .0382-.0075.076-.0221.1112-.0146.0353-.036.0673-.063.0943s-.059.0484-.0943.063c-.0352.0146-.073.0221-.1112.0221z" fill="#f6faff"/><path d="m29.9585 32.8916-.001.001.6926.6926h4.2747v-.0047c.0376 0 .0737.0149.1003.0415.0265.0266.0415.0627.0415.1003v1.0101c-.0003.0375-.0154.0734-.0419.1-.0265.0265-.0624.0415-.0999.0418h-4.8622c-.0223-.0003-.044-.0058-.0635-.0158l5.1381 5.1381h.4383c.2378-.0081.4694-.0779.6721-.2023.2028-.1245.3697-.2995.4846-.5078l2.148-3.736-3.8625-3.8684-.002.0002c.0032.0027.0064.0055.0094.0085.0265.0266.0415.0627.0415.1003v1.0043c-.0003.0375-.0154.0734-.0419.0999-.0265.0266-.0624.0416-.0999.0419h-4.8622c-.0376 0-.0736-.0149-.1002-.0415-.0013-.0013-.0026-.0027-.0039-.004zm4.2151-.3049c-.0575 0-.1137-.017-.1615-.049-.0477-.0319-.085-.0773-.107-.1304s-.0277-.1115-.0165-.1679.0389-.1082.0795-.1488c.0407-.0407.0924-.0683.1488-.0796.0564-.0112.1148-.0054.1679.0166s.0985.0592.1305.107c.0319.0478.0489.104.0489.1615 0 .0771-.0306.151-.0851.2055s-.1284.0851-.2055.0851zm0 1.9313c-.0575 0-.1137-.0171-.1615-.049-.0477-.0319-.085-.0773-.107-.1304s-.0277-.1116-.0165-.1679c.0112-.0564.0389-.1082.0795-.1489.0407-.0406.0924-.0683.1488-.0795s.1148-.0055.1679.0165.0985.0593.1305.1071c.0319.0478.0489.104.0489.1614 0 .0382-.0075.076-.0221.1113-.0146.0352-.036.0673-.063.0943-.027.0269-.059.0483-.0943.063-.0352.0146-.073.0221-.1112.0221z" fill="#d7dfed"/><path d="m16.1224 7.22056c.737-1.18397 2.0612-1.97324 3.5714-1.97324 2.3133 0 4.1885 1.85125 4.1885 4.13489 0 2.28359-1.8752 4.13489-4.1885 4.13489-1.2801 0-2.4257-.5663-3.1948-1.4607l-.2222-.2823c-.0584-.0811-.1139-.1644-.1663-.2497l-.1584-.2817c-.0472-.0923-.0909-.1865-.1311-.2826-.1055-.252-.398-.3718-.6532-.2677-.2553.1041-.3767.3928-.2713.6448.0513.1226.1073.2427.1677.3602.0578.1125.1197.2226.1855.33.0687.1124.1418.222.2188.3285.0822.1136.169.2238.2601.3302.951 1.1114 2.3747 1.8184 3.9652 1.8184 2.8657 0 5.1887-2.2933 5.1887-5.12229 0-2.82898-2.323-5.12232-5.1887-5.12232-1.92 0-3.5956 1.0292-4.493 2.55873l-.3015-.75428c-.1013-.25364-.3918-.37812-.6487-.27804-.257.10008-.3831.38683-.2817.64047l.7483 1.87196c.0486.12181.1443.21953.266.27167s.2593.05443.3827.00637l1.8963-.73869c.2569-.10009.383-.38684.2816-.64047-.1013-.25364-.3918-.37812-.6487-.27804zm10.7982 5.20594c-.2646-.078-.5433.0705-.6223.3318-.0791.2613.0714.5363.3361.6143 1.1079.3267 1.9778.7245 2.5594 1.152.59.4336.806.8361.806 1.1702 0 .3013-.1739.6569-.6455 1.0455-.4688.3863-1.1771.7563-2.0963 1.0767-1.8338.6392-4.3998 1.0437-7.258 1.0437s-5.4242-.4045-7.258-1.0437c-.9192-.3204-1.6275-.6904-2.0963-1.0767-.4716-.3886-.6455-.7442-.6455-1.0455 0-.3249.2038-.7142.7596-1.1355.5493-.4164 1.3729-.807 2.4274-1.1328.2636-.0814.4104-.3584.3279-.6186-.0825-.2603-.3631-.4052-.6267-.3238-1.1155.3447-2.0607.7787-2.7378 1.292-.67047.5082-1.1506 1.1534-1.1506 1.9187v13.4118c0 .7093.41373 1.3164 1.0048 1.8035.5938.4893 1.4232.9078 2.4042 1.2497 1.9664.6854 4.6502 1.1001 7.591 1.1001.7089 0 1.402-.0241 2.073-.0701.2756-.0189.4834-.2547.4643-.5268-.0192-.272-.258-.4772-.5336-.4583-.6477.0444-1.3177.0678-2.0037.0678-2.8582 0-5.4242-.4046-7.258-1.0438-.9192-.3203-1.6275-.6904-2.0963-1.0767-.4716-.3886-.6455-.7442-.6455-1.0454v-5.0116l.0046.0038c.5938.4893 1.4232.9079 2.4042 1.2498 1.9664.6853 4.6502 1.1 7.591 1.1 2.9407 0 5.6246-.4147 7.591-1.1.981-.3419 1.8104-.7605 2.4042-1.2498l.0046-.0038v.3022c0 .2727.2239.4937.5001.4937s.5001-.221.5001-.4937v-8.7024c0-.7867-.5068-1.4462-1.2089-1.9622-.7103-.5221-1.7016-.9615-2.8705-1.3061zm3.0746 5.0718.0046-.0037v4.8007c0 .3012-.1739.6568-.6455 1.0454-.4688.3864-1.1771.7564-2.0963 1.0768-1.8338.6391-4.3998 1.0437-7.258 1.0437s-5.4242-.4046-7.258-1.0437c-.9192-.3204-1.6275-.6904-2.0963-1.0768-.4716-.3886-.6455-.7442-.6455-1.0454v-4.8007l.0046.0037c.5938.4894 1.4232.9079 2.4042 1.2498 1.9664.6854 4.6502 1.1001 7.591 1.1001 2.9407 0 5.6246-.4147 7.591-1.1001.981-.3419 1.8104-.7604 2.4042-1.2498zm-17.5578 3.4607c0 .3393-.2786.6143-.6223.6143-.3436 0-.6222-.275-.6222-.6143 0-.3392.2786-.6143.6222-.6143.3437 0 .6223.2751.6223.6143zm0 6.7876c0 .3392-.2786.6142-.6223.6142-.3436 0-.6222-.275-.6222-.6142 0-.3393.2786-.6143.6222-.6143.3437 0 .6223.275.6223.6143z" fill="#fff"/></g></svg>

<svg viewBox="0 0 40 40" fill="none" xmlns="http://www.w3.org/2000/svg">
<path fill-rule="evenodd" clip-rule="evenodd" d="M36.7378 27.2088L39.8199 32.569C39.9379 32.7763 40 33.0108 40 33.2493C40 33.4879 39.9379 33.7223 39.8199 33.9296L36.7378 39.2898C36.623 39.4981 36.456 39.6731 36.2533 39.7976C36.0505 39.9221 35.8189 39.9918 35.5812 40H29.4159C29.1781 39.9907 28.9468 39.9201 28.7443 39.795C28.5419 39.67 28.3752 39.4947 28.2604 39.2863L25.1784 33.8956C25.0615 33.6915 25 33.4605 25 33.2253C25 32.9901 25.0615 32.7591 25.1784 32.555L28.2616 27.2088C28.3774 27.0032 28.545 26.8315 28.7476 26.7106C28.9503 26.5897 29.1811 26.5239 29.4171 26.5198H35.5823C35.8183 26.5238 36.0491 26.5895 36.2518 26.7104C36.4546 26.8313 36.6221 27.0031 36.7378 27.2088ZM34.9247 31.6492H30.0684C30.0306 31.6482 29.9939 31.6622 29.9662 31.6881C29.9386 31.7139 29.9223 31.7496 29.9207 31.7875V32.7953C29.9207 32.8329 29.9357 32.869 29.9623 32.8956C29.9889 32.9221 30.0249 32.9371 30.0625 32.9371H34.9247C34.9622 32.9368 34.9981 32.9217 35.0246 32.8952C35.0511 32.8687 35.0662 32.8328 35.0665 32.7953V31.791C35.0665 31.7534 35.0515 31.7173 35.0249 31.6907C34.9984 31.6641 34.9623 31.6492 34.9247 31.6492ZM34.1735 32.5867C34.116 32.5867 34.0598 32.5696 34.012 32.5377C33.9642 32.5058 33.927 32.4604 33.905 32.4073C33.883 32.3542 33.8772 32.2957 33.8885 32.2394C33.8997 32.183 33.9274 32.1312 33.968 32.0906C34.0086 32.0499 34.0604 32.0222 34.1168 32.011C34.1732 31.9998 34.2316 32.0056 34.2847 32.0276C34.3378 32.0496 34.3832 32.0868 34.4151 32.1346C34.4471 32.1824 34.4641 32.2386 34.4641 32.2961C34.4641 32.3731 34.4335 32.4471 34.379 32.5016C34.3245 32.5561 34.2506 32.5867 34.1735 32.5867ZM34.9247 33.5851H30.0684C30.0306 33.5842 29.9939 33.5981 29.9662 33.624C29.9386 33.6499 29.9223 33.6856 29.9207 33.7234V34.7371C29.9225 34.7737 29.9382 34.8082 29.9645 34.8337C29.9908 34.8592 30.0259 34.8736 30.0625 34.8742H34.9247C34.9622 34.8739 34.9981 34.8589 35.0246 34.8323C35.0511 34.8058 35.0662 34.7699 35.0665 34.7324V33.7222C35.0665 33.6846 35.0515 33.6486 35.0249 33.622C34.9984 33.5954 34.9623 33.5804 34.9247 33.5804V33.5851ZM34.1735 34.5179C34.116 34.5179 34.0598 34.5009 34.012 34.469C33.9642 34.437 33.927 34.3916 33.905 34.3385C33.883 34.2854 33.8772 34.227 33.8885 34.1706C33.8997 34.1142 33.9274 34.0625 33.968 34.0218C34.0086 33.9812 34.0604 33.9535 34.1168 33.9423C34.1732 33.9311 34.2316 33.9368 34.2847 33.9588C34.3378 33.9808 34.3832 34.0181 34.4151 34.0659C34.4471 34.1137 34.4641 34.1698 34.4641 34.2273C34.4641 34.2655 34.4566 34.3033 34.442 34.3385C34.4274 34.3738 34.406 34.4058 34.379 34.4328C34.352 34.4598 34.32 34.4812 34.2847 34.4958C34.2495 34.5104 34.2117 34.5179 34.1735 34.5179Z" fill="#F6FAFF"/>
<path fill-rule="evenodd" clip-rule="evenodd" d="M29.9585 32.8916L29.9575 32.8926L30.6501 33.5852H34.9248V33.5805C34.9624 33.5805 34.9985 33.5954 35.0251 33.622C35.0516 33.6486 35.0666 33.6847 35.0666 33.7223V34.7324C35.0663 34.7699 35.0512 34.8058 35.0247 34.8324C34.9982 34.8589 34.9623 34.8739 34.9248 34.8742H30.0626C30.0403 34.8739 30.0186 34.8684 29.9991 34.8584L35.1372 39.9965H35.5755C35.8133 39.9884 36.0449 39.9186 36.2476 39.7942C36.4504 39.6697 36.6173 39.4947 36.7322 39.2864L38.8802 35.5504L35.0177 31.682L35.0157 31.6822C35.0189 31.6849 35.0221 31.6877 35.0251 31.6907C35.0516 31.7173 35.0666 31.7534 35.0666 31.791V32.7953C35.0663 32.8328 35.0512 32.8687 35.0247 32.8952C34.9982 32.9218 34.9623 32.9368 34.9248 32.9371H30.0626C30.025 32.9371 29.989 32.9222 29.9624 32.8956C29.9611 32.8943 29.9598 32.8929 29.9585 32.8916ZM34.1736 32.5867C34.1161 32.5867 34.0599 32.5697 34.0121 32.5377C33.9644 32.5058 33.9271 32.4604 33.9051 32.4073C33.8831 32.3542 33.8774 32.2958 33.8886 32.2394C33.8998 32.183 33.9275 32.1312 33.9681 32.0906C34.0088 32.0499 34.0605 32.0223 34.1169 32.011C34.1733 31.9998 34.2317 32.0056 34.2848 32.0276C34.3379 32.0496 34.3833 32.0868 34.4153 32.1346C34.4472 32.1824 34.4642 32.2386 34.4642 32.2961C34.4642 32.3732 34.4336 32.4471 34.3791 32.5016C34.3246 32.5561 34.2507 32.5867 34.1736 32.5867ZM34.1736 34.518C34.1161 34.518 34.0599 34.5009 34.0121 34.469C33.9644 34.4371 33.9271 34.3917 33.9051 34.3386C33.8831 34.2855 33.8774 34.227 33.8886 34.1707C33.8998 34.1143 33.9275 34.0625 33.9681 34.0218C34.0088 33.9812 34.0605 33.9535 34.1169 33.9423C34.1733 33.9311 34.2317 33.9368 34.2848 33.9588C34.3379 33.9808 34.3833 34.0181 34.4153 34.0659C34.4472 34.1137 34.4642 34.1699 34.4642 34.2273C34.4642 34.2655 34.4567 34.3033 34.4421 34.3386C34.4275 34.3738 34.4061 34.4059 34.3791 34.4329C34.3521 34.4598 34.3201 34.4812 34.2848 34.4959C34.2496 34.5105 34.2118 34.518 34.1736 34.518Z" fill="#D7DFED"/>
<path fill-rule="evenodd" clip-rule="evenodd" d="M16.1224 7.22056C16.8594 6.03659 18.1836 5.24732 19.6938 5.24732C22.0071 5.24732 23.8823 7.09857 23.8823 9.38221C23.8823 11.6658 22.0071 13.5171 19.6938 13.5171C18.4137 13.5171 17.2681 12.9508 16.499 12.0564L16.2768 11.7741C16.2184 11.693 16.1629 11.6097 16.1105 11.5244L15.9521 11.2427C15.9049 11.1504 15.8612 11.0562 15.821 10.9601C15.7155 10.7081 15.423 10.5883 15.1678 10.6924C14.9125 10.7965 14.7911 11.0852 14.8965 11.3372C14.9478 11.4598 15.0038 11.5799 15.0642 11.6974C15.122 11.8099 15.1839 11.92 15.2497 12.0274C15.3184 12.1398 15.3915 12.2494 15.4685 12.3559C15.5507 12.4695 15.6375 12.5797 15.7286 12.6861C16.6796 13.7975 18.1033 14.5045 19.6938 14.5045C22.5595 14.5045 24.8825 12.2112 24.8825 9.38221C24.8825 6.55323 22.5595 4.25989 19.6938 4.25989C17.7738 4.25989 16.0982 5.28909 15.2008 6.81862L14.8993 6.06434C14.798 5.8107 14.5075 5.68622 14.2506 5.7863C13.9936 5.88638 13.8675 6.17313 13.9689 6.42677L14.7172 8.29873C14.7658 8.42054 14.8615 8.51826 14.9832 8.5704C15.1049 8.62254 15.2425 8.62483 15.3659 8.57677L17.2622 7.83808C17.5191 7.73799 17.6452 7.45124 17.5438 7.19761C17.4425 6.94397 17.152 6.81949 16.8951 6.91957L16.1224 7.22056ZM26.9206 12.4265C26.656 12.3485 26.3773 12.497 26.2983 12.7583C26.2192 13.0196 26.3697 13.2946 26.6344 13.3726C27.7423 13.6993 28.6122 14.0971 29.1938 14.5246C29.7838 14.9582 29.9998 15.3607 29.9998 15.6948C29.9998 15.9961 29.8259 16.3517 29.3543 16.7403C28.8855 17.1266 28.1772 17.4966 27.258 17.817C25.4242 18.4562 22.8582 18.8607 20 18.8607C17.1418 18.8607 14.5758 18.4562 12.742 17.817C11.8228 17.4966 11.1145 17.1266 10.6457 16.7403C10.1741 16.3517 10.0002 15.9961 10.0002 15.6948C10.0002 15.3699 10.204 14.9806 10.7598 14.5593C11.3091 14.1429 12.1327 13.7523 13.1872 13.4265C13.4508 13.3451 13.5976 13.0681 13.5151 12.8079C13.4326 12.5476 13.152 12.4027 12.8884 12.4841C11.7729 12.8288 10.8277 13.2628 10.1506 13.7761C9.48013 14.2843 9 14.9295 9 15.6948V29.1066C9 29.8159 9.41373 30.423 10.0048 30.9101C10.5986 31.3994 11.428 31.8179 12.409 32.1598C14.3754 32.8452 17.0592 33.2599 20 33.2599C20.7089 33.2599 21.402 33.2358 22.073 33.1898C22.3486 33.1709 22.5564 32.9351 22.5373 32.663C22.5181 32.391 22.2793 32.1858 22.0037 32.2047C21.356 32.2491 20.686 32.2725 20 32.2725C17.1418 32.2725 14.5758 31.8679 12.742 31.2287C11.8228 30.9084 11.1145 30.5383 10.6457 30.152C10.1741 29.7634 10.0002 29.4078 10.0002 29.1066V24.095L10.0048 24.0988C10.5986 24.5881 11.428 25.0067 12.409 25.3486C14.3754 26.0339 17.0592 26.4486 20 26.4486C22.9407 26.4486 25.6246 26.0339 27.591 25.3486C28.572 25.0067 29.4014 24.5881 29.9952 24.0988L29.9998 24.095V24.3972C29.9998 24.6699 30.2237 24.8909 30.4999 24.8909C30.7761 24.8909 31 24.6699 31 24.3972V15.6948C31 14.9081 30.4932 14.2486 29.7911 13.7326C29.0808 13.2105 28.0895 12.7711 26.9206 12.4265ZM29.9952 17.4983L29.9998 17.4946V22.2953C29.9998 22.5965 29.8259 22.9521 29.3543 23.3407C28.8855 23.7271 28.1772 24.0971 27.258 24.4175C25.4242 25.0566 22.8582 25.4612 20 25.4612C17.1418 25.4612 14.5758 25.0566 12.742 24.4175C11.8228 24.0971 11.1145 23.7271 10.6457 23.3407C10.1741 22.9521 10.0002 22.5965 10.0002 22.2953V17.4946L10.0048 17.4983C10.5986 17.9877 11.428 18.4062 12.409 18.7481C14.3754 19.4335 17.0592 19.8482 20 19.8482C22.9407 19.8482 25.6246 19.4335 27.591 18.7481C28.572 18.4062 29.4014 17.9877 29.9952 17.4983ZM12.4374 20.959C12.4374 21.2983 12.1588 21.5733 11.8151 21.5733C11.4715 21.5733 11.1929 21.2983 11.1929 20.959C11.1929 20.6198 11.4715 20.3447 11.8151 20.3447C12.1588 20.3447 12.4374 20.6198 12.4374 20.959ZM12.4374 27.7466C12.4374 28.0858 12.1588 28.3608 11.8151 28.3608C11.4715 28.3608 11.1929 28.0858 11.1929 27.7466C11.1929 27.4073 11.4715 27.1323 11.8151 27.1323C12.1588 27.1323 12.4374 27.4073 12.4374 27.7466Z" fill="white"/>
</svg>
